!!!COM: Music21
!!!OTL: march_Cave-Hill-Side
!!!OMV: march_Cave-Hill-Side
**kern
*clefG2
*k[f#]
*G:
*M4/4
=1
8gL
8bJ
=
4dd
4dd
8bL
8aJ
8bL
8ddJ
=
4ee
4ee
4e
8gL
8aJ
=
8bL
16ccL
16bJJ
8aL
8bJ
4.g
8f#
=
2.g
8gL
8bJ
=||
4dd
4dd
8bL
8aJ
8bL
8ddJ
=
4ee
4ee
4e
8gL
8aJ
=
8bL
16ccL
16bJJ
8aL
8bJ
4.g
8f#
=
[2g
8g]
8a
8bL
8ddJ
=||
4.ee
8ff#
4gg
8ff#L
8ddJ
=
4ee
8eeL
8bJ
4dd
8bL
8ddJ
=
4ee
4ee
8eeL
8ddJ
8eeL
8ff#J
=
2.gg
8gL
8bJ
=
4dd
4dd
8bL
8aJ
8bL
8ddJ
=
4ee
4ee
4e
8gL
8aJ
=
8bL
16ccL
16bJJ
8aL
8bJ
4.g
8f#
=
2.g
4ryy
=||
*-
